assets/img/icons/common/google.svg

<svg height="36" viewBox="0 0 36 36" width="36" xmlns="http://www.w3.org/2000/svg"><g fill="none" fill-rule="evenodd" transform="translate(2 2)"><path d="m32.4365525 16.6024012c0-1.1508045-.105186-2.2582732-.3008319-3.3203427h-15.5864591v6.2795543h8.9064479c-.3835782 2.0292129-1.5497402 3.748197-3.3021387 4.8996894v4.0728711h5.3483567c3.1296336-2.8264529 4.9346251-6.9880591 4.9346251-11.9317721z" fill="#4285f4"/><path d="m16.5492615 32.4674071c4.4683006 0 8.2143241-1.4534668 10.9526659-3.9332338l-5.3483567-4.0728711c-1.4817199.9740222-3.3778725 1.5497684-5.6043092 1.5497684-4.3105216 0-7.95837156-2.8553434-9.2598728-6.6929634h-5.52927657v4.2063177c2.72291451 5.305532 8.31951007 8.9429822 14.78914937 8.9429822z" fill="#34a853"/><path d="m7.2893887 19.3181072c-.33098523-.9740222-.51891752-2.0147677-.51891752-3.0844037 0-1.0696359.18793229-2.1103814.51891752-3.0844036v-4.20631771h-5.52927657c-1.12058135 2.19155001-1.76011213 4.67131701-1.76011213 7.29072131 0 2.6194044.63953078 5.0991714 1.76011213 7.2907214z" fill="#fbbc05"/><path d="m16.5492615 6.4563365c2.4297962 0 4.6113535.81925174 6.3265863 2.42748898l4.7466929-4.65618387c-2.8666687-2.6187165-6.6126922-4.22764161-11.0732792-4.22764161-6.468938 0-12.06623486 3.63813805-14.78914937 8.94298219l5.52927657 4.20631771c1.30150124-3.83693216 4.9500524-6.6929634 9.2598728-6.6929634z" fill="#ea4335"/></g></svg>

<?xml version="1.0" encoding="UTF-8"?>
<svg width="36px" height="36px" viewBox="0 0 36 36" version="1.1" xmlns="http://www.w3.org/2000/svg" xmlns:xlink="http://www.w3.org/1999/xlink">
    <!-- Generator: Sketch 43.2 (39069) - http://www.bohemiancoding.com/sketch -->
    <title>UI/icons/color/google</title>
    <desc>Created with Sketch.</desc>
    <defs/>
    <g id="Symbols" stroke="none" stroke-width="1" fill="none" fill-rule="evenodd">
        <g id="UI/icons/color/google">
            <g id="Group" transform="translate(2.000000, 2.000000)">
                <path d="M32.4365525,16.6024012 C32.4365525,15.4515967 32.3313665,14.344128 32.1357206,13.2820585 L16.5492615,13.2820585 L16.5492615,19.5616128 L25.4557094,19.5616128 C25.0721312,21.5908257 23.9059692,23.3098098 22.1535707,24.4613022 L22.1535707,28.5341733 L27.5019274,28.5341733 C30.631561,25.7077204 32.4365525,21.5461142 32.4365525,16.6024012 L32.4365525,16.6024012 Z" id="Shape" fill="#4285F4"/>
                <path d="M16.5492615,32.4674071 C21.0175621,32.4674071 24.7635856,31.0139403 27.5019274,28.5341733 L22.1535707,24.4613022 C20.6718508,25.4353244 18.7756982,26.0110706 16.5492615,26.0110706 C12.2387399,26.0110706 8.59088994,23.1557272 7.2893887,19.3181072 L1.76011213,19.3181072 L1.76011213,23.5244249 C4.48302664,28.8299569 10.0796222,32.4674071 16.5492615,32.4674071 L16.5492615,32.4674071 Z" id="Shape" fill="#34A853"/>
                <path d="M7.2893887,19.3181072 C6.95840347,18.344085 6.77047118,17.3033395 6.77047118,16.2337035 C6.77047118,15.1640676 6.95840347,14.1233221 7.2893887,13.1492999 L7.2893887,8.94298219 L1.76011213,8.94298219 C0.639530783,11.1345322 0,13.6142992 0,16.2337035 C0,18.8531079 0.639530783,21.3328749 1.76011213,23.5244249 L7.2893887,19.3181072 L7.2893887,19.3181072 Z" id="Shape" fill="#FBBC05"/>
                <path d="M16.5492615,6.4563365 C18.9790577,6.4563365 21.160615,7.27558824 22.8758478,8.88382548 L27.6225407,4.22764161 C24.755872,1.60892511 21.0098485,0 16.5492615,0 C10.0803235,0 4.48302664,3.63813805 1.76011213,8.94298219 L7.2893887,13.1492999 C8.59088994,9.31236774 12.2394411,6.4563365 16.5492615,6.4563365 Z" id="Shape" fill="#EA4335"/>
            </g>
        </g>
    </g>
</svg>
